X:1     %Music
T:Christmas is Coming
B:Singing Together, Autumn 1984, BBC Publications
F:http://www.folkinfo.org/songs
V:1     %
M:4/4     %Meter
L:1/8     %
K:C
c2 cB A2 AA |GA GF E4 |
w:Christ-mas is com-ing, the goose is gett-ing fat!
GG CC DD FF |E2 D2 C2 CC |
w:(2)Please to put a pen-ny in an old man's hat. If you 
cc cB A2 AA |GA GF E2 EF |GG CC D2 FF |
w:have-n't got a pen-ny, a ha'-pen-ny will do. If you have-n't got a ha'-pen-ny, 
E2 D2 C4 |z8 |z8  |]
w:God bless you. 
V:2     %
M:4/4     %Meter
L:1/8     %
K:C
z8 |z8 |c2 cB A2 AA |GA GF E4 |GG CC DD FF |E2 D2 C2 CC |cc cB A2 AA |GA GF E2 EF |GG CC D2 FF |E2 D2 C4 |]
w:Christ-mas is com-ing, the goose is gett-ing fat! Please to put a pen-ny in an old man's hat. If you have-n't got a pen-ny, a ha'-pen-ny will do. If you have-n't got a ha'-pen-ny, God bless you.